X:484
T:My Lady. RH.484
R:air
S:Rev.R.Harrison’s MS,c1815,Cumbria
N:marked “..for the German Flute.”
N:I have not corrected the tune for leading notes. PJH.
O:England
A:Temple Sowerby,Cumbria
Z:vmp.Simon Wilson. Review PJH, 2008.
M:2/4
L:1/8
Q:1/4=100
K:D
A|d3f|e3g|fg a/g/f/e/|dddA|\
d3f|e3g|fa a/g/f/e/|d3z:|!
|:zafa|zbgb|zgeg|zafa|\
zd’af|zbge|zfgf|ddd2:|!
|:A2FG|AAAA|gzez|fzdz|\
c4|d4|bagf|eee2:|!
|:g4|f4|ggge|fffd|\
bbbg|ad’bg|fdec|ddd2:|!
|:A|dd/e/ df|ee/g/ eg|fa a/g/f/e/|dd d3/z/:|\
|:Aafa|Bbgb|!
Ggeg|Aafa|\
Fd’af|Gbgf|Afge|ddd3/z/:|!
|:A2FG|A2AA|geed|fddd|\
c2ce|d2da|bagf|f2e:|!
|:f|gg/b/ ge|ff/a/ fd|gg/b/ ge|ff/a/ fd|\
b2bg|ad’bg|f2ge|ddd2:|

